!!! OTL: Literature4
!!! Chapter: 5
!!! Section: I
!!! Page: 345
!!! Mode: 
!!! Encoder: DJB
**kern
*staff1
*I"Piano
=1-
*clefG2
*k[]
*a:
*M4/4
4a/
4b\
4cc\
4cc\
=2
4cc\
4dd\
4ee\
4ee\
=3
4ee\
4ee\
4dd\
4cc\
=4
2b\
2a/
=5
4ee\
4ee\
4ff\
4ff\
=6
4ee\
4ee\
4dd\
4dd\
=7
4dd\
4dd\
4ee\
4ee\
=8
8dd\L
8cc\J
4dd\
4cc\
4cc\
=9
4cc\
4dd\
4ee\
8dd\L
8cc\J
=10
!!linebreak:original
4b\
4b\
2a/
==
*-
